X: 28
T:Une cigale
O:France
R:Ronde
Z:Transcrit et/ou corrigé par Michel BELLON - 2005-09-10
Z:Pour toute observation mailto:galouvielle@free.fr
M:2/4
L:1/8
Q:1/4=116
K:C
Z8 S |: [P:A] c2 de | d2G2 | cd ec | d4 :|
w:U-ne ci-ga-le, le beau temps pas-sé le beau temps pas-sé
[P:B] dd dd | gf ed | c2c2 | dd dd gf ed | c4 S |]
w:u-ne ci-ga-le, le beau temps pas-sé n'a rien gar-dé.

%%footer $D   Galouvielle-MBe 2006 \n--- (--)
